resources/svg/server.svg

<svg viewBox="0 0 24 24"><path fill="none" stroke="currentColor" stroke-width="2" d="M14 19h1v-1h-1v1zm-9 4h14V1H5v22zM8 5h8h-8zm0 4h8h-8zm0 4h8h-8z"/></svg>

<svg xmlns="http://www.w3.org/2000/svg" viewBox="0 0 24 24" fill="currentColor"><path fill="none" stroke="currentColor" stroke-width="2" d="M14,19 L15,19 L15,18 L14,18 L14,19 Z M5,23 L19,23 L19,1 L5,1 L5,23 Z M8,5 L16,5 L8,5 Z M8,9 L16,9 L8,9 Z M8,13 L16,13 L8,13 Z"/></svg>
